X:275
T: Kevin Mahon's
T: R\'il Chaoimhin U\'i Mhath\'una
S: B.Breathnach:"Ceol Rince na hEireann" IV/130
Z: B.Black
L: 1/8
M: 4/4
R: reel
K: D
E|DA,B,C DCDE|FGAF GFGB|Adfd (3ddd fd|gfed cAGE|
DA,B,C DCDE|FGAF GFGB|Adfd geag|faec Ad d :|
e|fddc dfaf|gfga bgeg|fgaf dfaf|gfed cAGE|
D3F ADFA|GB B2 dBGB|Adfd geag|faec Ad d :|
